lib/icons/unlocked.svg

<svg width="14" height="16" viewBox="0 0 14 16" fill="none" xmlns="http://www.w3.org/2000/svg">
<path fill-rule="evenodd" clip-rule="evenodd" d="M4.74809 0.00390625C2.95422 0.00390625 1.5 1.45812 1.5 3.25199H2.5C2.5 2.01041 3.5065 1.00391 4.74809 1.00391H9C10.3807 1.00391 11.5 2.12319 11.5 3.50391V5.00009H2C0.895431 5.00009 0 5.89552 0 7.00009V14.0001C0 15.1047 0.89543 16.0001 2 16.0001H12C13.1046 16.0001 14 15.1047 14 14.0001V7.00009C14 6.06817 13.3626 5.28512 12.5 5.0631V3.50391C12.5 1.57091 10.933 0.00390625 9 0.00390625H4.74809ZM2 6.00009H12C12.5523 6.00009 13 6.44781 13 7.00009V14.0001C13 14.5524 12.5523 15.0001 12 15.0001H2C1.44772 15.0001 1 14.5524 1 14.0001V7.00009C1 6.44781 1.44772 6.00009 2 6.00009ZM9 10.5001C9 11.6047 8.10457 12.5001 7 12.5001C5.89543 12.5001 5 11.6047 5 10.5001C5 9.39552 5.89543 8.50009 7 8.50009C8.10457 8.50009 9 9.39552 9 10.5001Z" fill="#7A859E"/>
</svg>

<svg width="14" height="16" fill="none" xmlns="http://www.w3.org/2000/svg"><path fill-rule="evenodd" clip-rule="evenodd" d="M4.748.004A3.248 3.248 0 0 0 1.5 3.252h1a2.248 2.248 0 0 1 2.248-2.248H9a2.5 2.5 0 0 1 2.5 2.5V5H2a2 2 0 0 0-2 2v7a2 2 0 0 0 2 2h10a2 2 0 0 0 2-2V7a2 2 0 0 0-1.5-1.937v-1.56A3.5 3.5 0 0 0 9 .004H4.748ZM2 6h10a1 1 0 0 1 1 1v7a1 1 0 0 1-1 1H2a1 1 0 0 1-1-1V7a1 1 0 0 1 1-1Zm7 4.5a2 2 0 1 1-4 0 2 2 0 0 1 4 0Z" fill="#7A859E"/></svg>
